src/icons/svg/chat.svg

<?xml version="1.0" standalone="no"?><!DOCTYPE svg PUBLIC "-//W3C//DTD SVG 1.1//EN" "http://www.w3.org/Graphics/SVG/1.1/DTD/svg11.dtd"><svg t="1576994088102" class="icon" viewBox="0 0 1053 1024" version="1.1" xmlns="http://www.w3.org/2000/svg" p-id="1117" width="131.625" height="128" xmlns:xlink="http://www.w3.org/1999/xlink"><defs><style type="text/css"></style></defs><path d="M526.628571 0c290.845257 0 526.628571 200.616229 526.628572 447.926857 0 247.515429-228.205714 447.926857-526.628572 447.926857-33.762743 0-67.466971-4.388571-99.474285-9.362285L197.485714 1024v-226.7136C77.180343 715.278629 0 589.326629 0 447.926857 0 200.616229 235.7248 0 526.628571 0z m0 830.902857c263.314286 0 468.114286-175.250286 468.114286-387.715657C994.742857 230.692571 785.086171 58.514286 526.628571 58.514286 267.995429 58.514286 58.514286 230.692571 58.514286 443.1872c0 130.428343 78.994286 245.496686 199.68 315.040914L257.462857 912.822857l156.174629-96.519314c36.2496 7.314286 73.962057 14.599314 112.991085 14.599314z m29.227886-304.274286a29.227886 29.227886 0 1 1 0 58.514286h-233.998628C305.707886 585.142857 292.571429 571.977143 292.571429 555.797943A29.198629 29.198629 0 0 1 321.857829 526.628571h233.998628zM702.171429 526.628571c17.554286 0 29.257143 13.019429 29.257142 29.169372C731.428571 571.977143 719.725714 585.142857 702.171429 585.142857h-29.257143c-17.554286 0-29.257143-13.165714-29.257143-29.344914 0-16.149943 11.702857-29.169371 29.257143-29.169372h29.257143z m58.485028-204.8c16.149943 0 29.2864 13.165714 29.2864 29.344915a29.198629 29.198629 0 0 1-29.2864 29.169371H292.571429a29.227886 29.227886 0 1 1 0-58.514286H760.685714z" p-id="1118" fill="#8a8a8a"></path></svg>

<svg class="icon" viewBox="0 0 1053 1024" xmlns="http://www.w3.org/2000/svg" width="131.625" height="128"><defs><style/></defs><path d="M526.629 0c290.845 0 526.628 200.616 526.628 447.927 0 247.515-228.206 447.927-526.628 447.927-33.763 0-67.467-4.389-99.475-9.363L197.486 1024V797.286C77.18 715.28 0 589.326 0 447.926 0 200.617 235.725 0 526.629 0zm0 830.903c263.314 0 468.114-175.25 468.114-387.716 0-212.494-209.657-384.673-468.114-384.673-258.634 0-468.115 172.179-468.115 384.673 0 130.429 78.995 245.497 199.68 315.041l-.731 154.595 156.174-96.52c36.25 7.315 73.963 14.6 112.992 14.6zm29.227-304.274a29.228 29.228 0 1 1 0 58.514H321.858c-16.15 0-29.287-13.166-29.287-29.345a29.199 29.199 0 0 1 29.287-29.17h233.998zm146.315 0c17.555 0 29.258 13.019 29.258 29.169 0 16.18-11.703 29.345-29.258 29.345h-29.257c-17.554 0-29.257-13.166-29.257-29.345 0-16.15 11.703-29.17 29.257-29.17h29.257zm58.485-204.8c16.15 0 29.287 13.165 29.287 29.344a29.199 29.199 0 0 1-29.287 29.17H292.571a29.228 29.228 0 1 1 0-58.514h468.115z"/></svg>
